src/assets/icons/ether-sigh.svg

<svg width="44" height="36" viewBox="0 0 44 36" fill="none" xmlns="http://www.w3.org/2000/svg">
<g clip-path="url(#clip0_874_1155)">
<path d="M21.8508 36C17.8997 36 14.3579 35.3859 11.2285 34.1578C8.09595 32.9296 5.56039 31.2102 3.61871 29.0025C1.67704 26.7918 0.470802 24.2307 0.00307714 21.313H10.3515C10.6531 22.7239 11.3054 23.9371 12.3116 24.9496C13.3179 25.9621 14.6226 26.7379 16.2288 27.2741C17.8351 27.8103 19.6783 28.0799 21.7554 28.0799C24.2663 28.0799 26.408 27.6815 28.1835 26.8817C29.959 26.0849 31.3222 24.9316 32.2761 23.4279C33.23 21.9241 33.707 20.1148 33.707 17.994C33.707 15.8732 33.23 14.0669 32.2761 12.5632C31.3222 11.0594 29.9559 9.90914 28.1835 9.10934C26.408 8.31253 24.2663 7.91113 21.7554 7.91113C19.6783 7.91113 17.8443 8.18073 16.2565 8.71692C14.6656 9.25312 13.3671 10.023 12.3639 11.0175C11.3608 12.015 10.69 13.2341 10.3546 14.678H0C0.467725 11.7304 1.67396 9.16026 3.61564 6.96755C5.55731 4.77484 8.09287 3.06141 11.2254 1.83325C14.3579 0.614079 17.8966 0 21.8508 0C26.2695 0 30.1375 0.751872 33.4546 2.25562C36.7687 3.75936 39.3566 5.86221 41.2152 8.56116C43.0738 11.2631 44.0031 14.4084 44.0031 17.997C44.0031 21.5856 43.0738 24.7339 41.2152 27.4358C39.3566 30.1378 36.7687 32.2406 33.4546 33.7414C30.1406 35.2451 26.2726 35.997 21.8508 35.997V36Z" fill="#2ECC71"/>
<path d="M27.7959 14.9655C27.2205 14.0968 26.4205 13.4258 25.3865 12.9435C24.3557 12.4642 23.1495 12.2246 21.7709 12.2246C20.3924 12.2246 19.1861 12.4642 18.1553 12.9435C17.1244 13.4228 16.3213 14.0968 15.7459 14.9655C15.1735 15.8342 14.8843 16.8437 14.8843 17.9999C14.8843 19.1562 15.1705 20.1687 15.7459 21.0344C16.3213 21.9031 17.1214 22.5771 18.1553 23.0564C19.1861 23.5356 20.3924 23.7753 21.7709 23.7753C23.1495 23.7753 24.3557 23.5356 25.3865 23.0564C26.4174 22.5771 27.2205 21.9031 27.7959 21.0344C28.3683 20.1657 28.6575 19.1562 28.6575 17.9999C28.6575 16.8437 28.3714 15.8312 27.7959 14.9655Z" fill="#0B3954"/>
</g>
<defs>
<clipPath id="clip0_874_1155">
<rect width="44" height="36" fill="white"/>
</clipPath>
</defs>
</svg>

<svg xmlns="http://www.w3.org/2000/svg" width="44" height="36" fill="none">
  <g clip-path="url(#a)">
    <path fill="#2ecc71" d="M21.85 36q-5.926 0-10.622-1.842-4.697-1.843-7.61-5.155-2.912-3.315-3.615-7.69h10.349a7.2 7.2 0 0 0 1.96 3.637q1.508 1.519 3.917 2.324 2.41.805 5.526.806 3.766.001 6.429-1.198 2.662-1.197 4.092-3.454 1.431-2.254 1.431-5.434c0-2.12-.477-3.927-1.43-5.43q-1.434-2.256-4.094-3.455c-1.775-.796-3.917-1.198-6.428-1.198q-3.116.001-5.498.806c-1.591.536-2.89 1.306-3.893 2.3q-1.505 1.496-2.01 3.661H0q.703-4.422 3.616-7.71 2.911-3.291 7.61-5.135C14.357.614 17.895 0 21.85 0q6.628 0 11.604 2.256 4.972 2.255 7.76 6.305 2.788 4.053 2.788 9.436 0 5.385-2.788 9.439t-7.76 6.305q-4.971 2.256-11.604 2.256z"/>
    <path fill="#0b3954" d="M27.796 14.966c-.576-.87-1.376-1.54-2.41-2.022q-1.547-.72-3.615-.72t-3.616.72q-1.546.719-2.41 2.021c-.572.87-.861 1.879-.861 3.035q-.001 1.735.862 3.034c.575.87 1.375 1.543 2.409 2.022q1.546.72 3.616.72 2.068 0 3.615-.72 1.546-.718 2.41-2.022.86-1.301.861-3.034 0-1.735-.861-3.034"/>
  </g>
  <defs>
    <clipPath id="a">
      <path fill="#fff" d="M0 0h44v36H0z"/>
    </clipPath>
  </defs>
</svg>
